web/public/images/parachute-error-404.svg

<?xml version="1.0" encoding="UTF-8" standalone="no"?>
<svg width="174px" height="167px" viewBox="0 0 174 167" version="1.1" xmlns="http://www.w3.org/2000/svg" xmlns:xlink="http://www.w3.org/1999/xlink">
    <!-- Generator: Sketch 44.1 (41455) - http://www.bohemiancoding.com/sketch -->
    <title>parachute_error_404</title>
    <desc>Created with Sketch.</desc>
    <defs></defs>
    <g id="Page-1" stroke="none" stroke-width="1" fill="none" fill-rule="evenodd">
        <g id="Error_404" transform="translate(-667.000000, -264.000000)" fill-rule="nonzero">
            <g id="parachute_error_404" transform="translate(667.000000, 264.000000)">
                <path d="M27.0124375,44.018 C27.3745781,43.032 27.1953125,41.96 26.5035156,41.083 C25.7226875,40.093 24.4136875,39.501 23.0024219,39.501 C22.9771563,39.501 22.9506875,39.501 22.9242187,39.502 C21.7571875,37.393 19.1764844,36 16.3671875,36 C12.8179688,36 9.77526563,38.2 9.23626562,41.079 C6.06723437,41.521 3.734375,43.783 3.734375,46.5 C3.734375,47.157 3.88115625,47.786 4.13621875,48.371 C4.292625,48.326 4.44903125,48.281 4.61025,48.244 C5.5679375,45.187 8.93548438,43 12.7578125,43 C15.746375,43 18.5797344,44.379 20.068,46.536 C21.6356719,46.699 23.0180625,47.416 23.8999531,48.535 C24.6410781,49.473 24.9298281,50.578 24.7277031,51.674 C24.7950781,51.732 24.8540312,51.795 24.9202031,51.856 C27.2614844,51.359 29,49.598 29,47.5 C29,46.144 28.2648906,44.869 27.0124375,44.018 Z" id="Shape" fill="#FFFFFF"></path>
                <path d="M23.4030625,52.018 C23.4054687,52.012 23.4066719,52.006 23.4090781,52 C23.5895469,52 23.8879219,50.343 22.8941406,49.083 C22.1602344,48.151 20.9787656,47.577 19.6565312,47.508 C19.4459844,47.497 19.2582969,47.396 19.1608437,47.24 C17.9264375,45.271 15.4131094,44 12.7578125,44 C9.37342187,44 6.4053125,46.001 5.69907813,48.759 C5.64975,48.949 5.47289062,49.099 5.24429687,49.142 C2.281,49.7 0.125,51.896 0.125,54.5 C0.125,57.532 3.09310938,60 6.7421875,60 L19.9765625,60 C22.9615156,60 25.390625,57.981 25.390625,55.5 C25.390625,54.129 24.6025781,52.83 23.4030625,52.018 Z" id="Shape" fill="#FFFFFF"></path>
                <path d="M172.898667,108.512375 C172.9,108.50825 172.900667,108.504125 172.902,108.5 C173.002,108.5 173.167333,107.360812 172.616667,106.494563 C172.21,105.853813 171.555333,105.459187 170.822667,105.41175 C170.706,105.404188 170.602,105.33475 170.548,105.2275 C169.864,103.873812 168.471333,103 167,103 C165.124667,103 163.48,104.375687 163.088667,106.271812 C163.061333,106.402438 162.963333,106.505562 162.836667,106.535125 C161.194667,106.91875 160,108.4285 160,110.21875 C160,112.30325 161.644667,114 163.666667,114 L171,114 C172.654,114 174,112.611937 174,110.90625 C174,109.963688 173.563333,109.070625 172.898667,108.512375 Z" id="Shape" fill="#FFFFFF"></path>
                <path d="M157.404,13.02925 C157.407143,13.0195 157.408714,13.00975 157.411857,13 C157.647571,13 158.037286,10.307375 156.739286,8.259875 C155.780714,6.745375 154.237571,5.812625 152.510571,5.7005 C152.235571,5.682625 151.990429,5.5185 151.863143,5.265 C150.250857,2.065375 146.968143,0 143.5,0 C139.079571,0 135.202857,3.251625 134.280429,7.733375 C134.216,8.042125 133.985,8.285875 133.686429,8.35575 C129.816,9.2625 127,12.831 127,17.0625 C127,21.9895 130.876714,26 135.642857,26 L152.928571,26 C156.827286,26 160,22.719125 160,18.6875 C160,16.459625 158.970714,14.34875 157.404,13.02925 Z" id="Shape" fill="#FFFFFF"></path>
                <g id="noun_11931_cc" transform="translate(39.000000, 65.000000)">
                    <g id="Group">
                        <circle id="Oval" fill="#2F99DE" cx="23.455" cy="82.944" r="8.026"></circle>
                        <path d="M98.697,78.782 L98.638,78.681 C97.433,76.633 94.24,76.275 91.51,77.881 L70.53,90.224 C69.758,89.589 68.758,89.092 67.615,88.834 L55.071,86.007 L56.053,82.887 C56.922,80.129 55.393,77.191 52.635,76.323 L44.316,73.7 C42.125,73.01 39.836,73.85 38.545,75.601 L33.417,62.495 C32.551,60.281 30.054,59.189 27.84,60.055 L27.733,60.098 C25.52,60.963 24.426,63.462 25.294,65.674 L32.755,84.744 C32.722,84.843 32.669,84.932 32.646,85.036 L31.479,90.216 C30.993,92.362 33.012,94.645 35.984,95.315 L64.696,101.788 C67.092,102.327 69.355,101.642 70.405,100.238 C70.856,100.08 71.305,99.891 71.743,99.634 L95.936,85.404 C98.664,83.795 99.903,80.83 98.697,78.782 Z" id="Shape" fill="#2F99DE"></path>
                        <circle id="Oval" fill="#26CD6F" cx="3.829" cy="35.531" r="3.829"></circle>
                        <path d="M39.727,33.544 L39.7,33.497 C39.125,32.519 37.601,32.349 36.3,33.115 L26.287,39.005 C25.919,38.701 25.443,38.464 24.897,38.341 L19.291,37.077 L19.786,35.503 C20.2,34.188 19.47,32.785 18.155,32.37 L14.186,31.12 C13.023,30.754 11.797,31.28 11.239,32.313 L8.015,24.074 C7.603,23.018 6.411,22.498 5.355,22.91 L5.304,22.931 C4.248,23.343 3.726,24.535 4.139,25.591 L7.799,34.945 C7.955,35.343 8.222,35.665 8.549,35.889 C8.387,36.074 8.267,36.286 8.213,36.527 L7.655,38.999 C7.425,40.022 8.387,41.111 9.805,41.432 L23.503,44.521 C24.646,44.778 25.726,44.451 26.227,43.781 C26.443,43.706 26.657,43.616 26.866,43.493 L38.408,36.704 C39.712,35.937 40.303,34.521 39.727,33.544 Z" id="Shape" fill="#26CD6F"></path>
                        <path d="M93,25.725 L100.478,18.119 L98.249,17.057 L84.614,22 L84.617,22 L67.699,16.013 L86.986,2.075 L82.589,0.263 L52.146,10.505 L36.702,4.944 C35.001,4.35 30.748,5.305 30.133,7.069 L30.046,7.325 C29.431,9.089 32.687,11.001 34.388,11.596 L82.476,29.081 C84.18,29.675 91.814,30.004 92.428,28.24 L92.821,27.988 C93.131,27.1 93.001,26.338 93.001,25.722 L93.001,25.725 L93,25.725 Z" id="Shape" fill="#FFFFFF"></path>
                    </g>
                </g>
            </g>
        </g>
    </g>
</svg>

<svg xmlns="http://www.w3.org/2000/svg" width="174" height="167"><g fill="none" fill-rule="nonzero"><path fill="#FFF" d="M27.012 44.018c.363-.986.183-2.058-.508-2.935-.781-.99-2.09-1.582-3.502-1.582l-.078.001C21.757 37.393 19.176 36 16.367 36c-3.549 0-6.592 2.2-7.13 5.079-3.17.442-5.503 2.704-5.503 5.421 0 .657.147 1.286.402 1.871.157-.045.313-.09.474-.127C5.568 45.187 8.935 43 12.758 43c2.988 0 5.822 1.379 7.31 3.536 1.568.163 2.95.88 3.832 1.999.741.938 1.03 2.043.828 3.139.067.058.126.121.192.182C27.261 51.359 29 49.598 29 47.5c0-1.356-.735-2.631-1.988-3.482"/><path fill="#FFF" d="M23.403 52.018 23.41 52c.18 0 .479-1.657-.515-2.917-.734-.932-1.915-1.506-3.237-1.575a.62.62 0 0 1-.496-.268C17.926 45.271 15.413 44 12.758 44c-3.385 0-6.353 2.001-7.059 4.759-.05.19-.226.34-.455.383C2.281 49.7.125 51.896.125 54.5c0 3.032 2.968 5.5 6.617 5.5h13.235c2.985 0 5.414-2.019 5.414-4.5 0-1.371-.788-2.67-1.988-3.482M172.899 108.512l.003-.012c.1 0 .265-1.14-.285-2.005a2.29 2.29 0 0 0-1.794-1.083.33.33 0 0 1-.275-.184c-.684-1.354-2.077-2.228-3.548-2.228-1.875 0-3.52 1.376-3.911 3.272a.34.34 0 0 1-.252.263c-1.642.384-2.837 1.894-2.837 3.684 0 2.084 1.645 3.781 3.667 3.781H171c1.654 0 3-1.388 3-3.094a3.17 3.17 0 0 0-1.101-2.394M157.404 13.03l.008-.03c.236 0 .625-2.693-.673-4.74-.958-1.515-2.501-2.447-4.228-2.56a.78.78 0 0 1-.648-.435C150.251 2.065 146.968 0 143.5 0c-4.42 0-8.297 3.252-9.22 7.733a.8.8 0 0 1-.594.623c-3.87.906-6.686 4.475-6.686 8.707 0 4.927 3.877 8.937 8.643 8.937h17.286c3.898 0 7.071-3.28 7.071-7.312 0-2.228-1.03-4.34-2.596-5.659"/><g transform="translate(39 65)"><circle cx="23.455" cy="82.944" r="8.026" fill="#2F99DE"/><path fill="#2F99DE" d="m98.697 78.782-.059-.101c-1.205-2.048-4.398-2.406-7.128-.8L70.53 90.224c-.772-.635-1.772-1.132-2.915-1.39l-12.544-2.827.982-3.12a5.23 5.23 0 0 0-3.418-6.564L44.316 73.7c-2.191-.69-4.48.15-5.771 1.901l-5.128-13.106a4.304 4.304 0 0 0-5.577-2.44l-.107.043a4.3 4.3 0 0 0-2.439 5.576l7.461 19.07c-.033.099-.086.188-.109.292l-1.167 5.18c-.486 2.146 1.533 4.429 4.505 5.099l28.712 6.473c2.396.539 4.659-.146 5.709-1.55.451-.158.9-.347 1.338-.604l24.193-14.23c2.728-1.609 3.967-4.574 2.761-6.622"/><circle cx="3.829" cy="35.531" r="3.829" fill="#26CD6F"/><path fill="#26CD6F" d="m39.727 33.544-.027-.047c-.575-.978-2.099-1.148-3.4-.382l-10.013 5.89a3.3 3.3 0 0 0-1.39-.664l-5.606-1.264.495-1.574a2.5 2.5 0 0 0-1.631-3.133l-3.969-1.25a2.5 2.5 0 0 0-2.947 1.193l-3.224-8.239a2.054 2.054 0 0 0-2.66-1.164l-.051.021a2.053 2.053 0 0 0-1.165 2.66l3.66 9.354c.156.398.423.72.75.944a1.45 1.45 0 0 0-.336.638l-.558 2.472c-.23 1.023.732 2.112 2.15 2.433l13.698 3.089c1.143.257 2.223-.07 2.724-.74a3.5 3.5 0 0 0 .639-.288l11.542-6.789c1.304-.767 1.895-2.183 1.319-3.16"/><path fill="#FFF" d="m93 25.725 7.478-7.606-2.229-1.062L84.614 22h.003l-16.918-5.987L86.986 2.075 82.589.263 52.146 10.505 36.702 4.944c-1.701-.594-5.954.361-6.569 2.125l-.087.256c-.615 1.764 2.641 3.676 4.342 4.271l48.088 17.485c1.704.594 9.338.923 9.952-.841l.393-.252c.31-.888.18-1.65.18-2.266v.003z"/></g></g></svg>
